X:17
T:The Irish Washerwoman
O:Ireland, Scotland, England
M:6/8
K:G
d2c| "G" BGG DGG|BGB dcB|"Am"cAA FAA|cAc edc|
"G"BGG DGG|BGB dcB|"D7"cBc Adc|"G"BGG G2 :|
|:g| "G"gdg gdg|gdg bag|"Am"fdf fdf|fdf agf|
"G"egg dgg|cgg Bgg|"D7"cBc Adc|"G"BGG G2:|
%%topmargin 1.2 in
%%bottommargin 1.0 in
%%titlefont Times-Roman 24
%%composerspace 0
%%partsspace 0
%%writehistory 1
%%scale 0.7
%%maxshrink 1
%
%
